X:1
T:Sewer
T:Sewer
T:Seclusive Ruin of Former Hendon Myre
%%score [ 1 2 ]
L:1/8
Q:1/4=120
M:4/4
K:D
V:1 treble nm="Piano 1"
V:2 bass nm="Piano 2"
V:1
!mf! !arpeggio![DFB]8 | D4 [CA]4 | [A,D]8- | [A,D]8 | !arpeggio![B,DFB]8 | D4 [Cc]2 d2 | [A,F]8- | %7
 [A,F]8 | !arpeggio![B,DFB]8 | D4 [CA]4 | [A,D]8- | [A,D]4 E2 F2 | %12
 [G,B,]2!mp!"_dim."!8va(! (5:4:5G/B/d/g/b/ (5:4:5B/d/g/b/d'/ (5:4:5g/b/d'/g'/b'/ | %13
"_cresc." (5:4:5B/d/g/b/d'/ (6:4:6d/g/b/d'/g'/b'/ (6:4:6g/b/d'/g'/b'/d''/ (5:4:5d'/g'/b'/d''/g''/!8va)! | %14
!f! !arpeggio!!fermata![GBd]8- | [GBd]8- |[Q:1/4=134]"^Allegro" [GBd]6 z2 | %17
[Q:1/4=120]"^Moderato"!mf! DA,D E2 F2 A- | A c2 d A2 [Cc]2 | [Dd]2 D E2 F2 A- | A c2 d [A,A]2 A,2 | %21
 [F,DF]2 [F,F] E2 D2 [F,B,]- | [F,B,]2 F,2 [E,E]2 [F,F]2 | [B,FB]2 f [Fe]2 d2 B | B D2 B, C4 | %25
 [DAd]2 D E2 F2 A- | A c2 d A2 [Cc]2 | [DFd]2 D E2 F2 A | [Ff] c2 d [Gg] e2 f | %29
 [Fdg]fd[DF] [DFB]4 | [ba']4 [FAc]2 [Ed]2 | [GBg]f d2 [DG]AB,[B,G]- | %32
 [B,G]2 [B,GB]2 G [A,DFA]2 A, | [B,EGB]2 [EG] F2 GB,[EA] | B,2 [CAc]2 [DAd]2 [EBde]2 | %35
 [CEAc]3 [EAd]3 [EAc]2- | [EAc]2 [EBe]2 [FBf]2 [GBg]2 | [Acfa]4 [FA]2 [B,B]E | %38
 [CAc]2 [CAc]2 [Fdf]2 C2 | [DFBd]3 D F2 BD- | D2 [Ee][FB] [Dd]2 [CAc]2 | [B,DBd]4 [B,G] D2 [G,D]- | %42
 [G,D][G,B,G] G,2 [B,DGB][CAc][DBd][Ece] | [Fdf] z [Geg]2 z2 [FAcf]2- | %44
 [FAcf]2!ped! C2!mp!"_dim." !~(!g3 !~)!D!ped-up! |!mf! [DFd]4 [A,DF]4 | %46
 [Ada]3 [A,CFA] [A,DFA]3 [G,D] | [G,A,DG]3 G, [G,B,DG]4 | [GBeg]2 [Aa]2 [Bgb]2 [dfad']2 | %49
 [Adfa]4 [DFA]2 FD | [EFAe]4 [DFAd]2 FG | [CGAc]4 [CGAc]2 [Dd][Cc] | [B,GB]4 [DGB] [A,DFA]3 | %53
 [EG]2 EF [B,EG]A[DB]c | [CEAc]3 [EA] [EABe]4 | [A,CFA]4 E2 [Aca]2 | [GBdg]2 [Ff]2 [EAe]3 [Dd] | %57
 [B,GB]4 [GB]4 | [B,DGB]3 B, [G,DG][A,FA][B,GB][CAc] | [DBd]2 [DG]2 [DGABd]2 [EAe][Dd] | %60
 [CAc]3 C [CGAc]4 | [DFAd]2"_cresc." E E2 F2 A- | A c2 d2 cBA | [G,A,EG]2 D e2 f2 a | %64
 [F,A,DF] c'2 d'2 [F,A,]2 [F,A,] |"_dim." [DFA]4 [DF]3 [DF] | z [DF] [DF]2 [DFA][DF][DF][B,D] | %67
 [B,EG]4 E3 E | [EG]E [EA]2 [EGB]G[Ed]F |"_dim." [A,CFA]4 [A,CFA]3 [FA] | [Ee]F F2 [Fd] F2 [B,F] | %71
!mf! !arpeggio![B,DG]8 |"_dim." !arpeggio![B,EG]2 F2 [CE]2 C2- | C4 [A,D]4- | %74
 [A,D]2 !arpeggio![DG]2 F2 E2 |!mf! [A,DFA]8- | [A,DFA]8 |] %77
V:2
!mf! B,,8- | B,,8 | [D,,D,]8- | [D,,D,]8 | B,,8- | B,,8 | [D,,D,]8- | [D,,D,]8 | B,,8- | B,,8 | %10
 [D,,D,]8- | [D,,D,]4 E,2 F,2 | G,,2 D,2 G,2 A,2 | B,4 D,4 | B,,8 | %15
!pp!"_cresc." !///-!G,,2 G,,,2 !///-!G,,2 G,,,2 | !///-!G,,2 G,,,2 !///-!G,,2 G,,,2 | %17
!mf! [D,,A,,D,]6 A,,2- | A,,2 D,2 [A,,A,]2 [C,A,]2 | [D,,D,] A,4- A, A,2- | %20
 A,[D,F,A,] D,,2 A,,2 [A,,D,]A,,, | [G,,,G,,] D,3 G,,2 D,2- | D,B,,D, B,,3 F,,2 | %23
 [G,,,G,,]D,G, B,2 D G,2 | D,[G,B,] D,2 C,D,,A,,C, | [D,,D,] A,3 [F,A,D]4 | %26
 [F,A,D]2 D,,2 [D,F,A,]2 G,2 | [D,,D,] A,3 [D,F,A,]2 F,D,, | D,,D,, [D,F,A,]2 [F,D]D,,E,,F,, | %29
 [G,,,G,,]2 G,,D, G,A,B,D, | [G,,D,G,]3 F, [A,C]3 D,, | [G,,,G,,]2 G,,D, G,A,D,[G,,G,]- | %32
 [G,,G,]G,G,, G,,,2 [F,,F,]2 F,, | E,,B,,E,F, G,3 B,, | E,,G, [B,,E,G,A,]2 B,A,,C,C, | %35
 [A,,A,]E,A,A,, [E,A,C]3 [G,,G,] | [A,,A,]E, [A,C]2 [G,B,]2 G,,2 | [F,,F,]C,F, [A,C]2 F,,2 A, | %38
 F,,[E,A,] F,,2 [F,A,D]A,F,F,, | [B,,,B,,]F, B,2 B, B,,2 [F,B,] | B,,[F,B,] [C,E,F,]2 D,F,C,A, | %41
 [A,,,G,,]D,G,A, [G,,G,]2 D,G,, | G,,,2 G,,D, G,[A,,A,]B,C | %43
 [G,D]2 [A,,,A,,]2 z2 [A,,,A,,][A,,,A,,]- | [A,,,A,,]A,,[G,A,]A,, A,/A,,/ A,,,3 | %45
 [D,,A,,D,]2 D, D,,3 D,D,, | [A,DF]A, D,,4 A,,D, | [E,,E,]2 E,,4 E,,G, | %48
 [E,B,]G,[E,A,]E,, [F,A,] E,,2 E,, | F,,2 D,F, A,D,F,A, | [F,,A,]2 F,, F,2 F,,F,G, | %51
 [G,,A,]2 D,G, A,3 G,, | [G,,,G,,]2 G,,G,,, G,, [F,,D,F,]2 F,,, | [E,,E,]B,,E,G, G,E,G,E,, | %54
 [A,,G,]E, G,2 B,A,, [A,,E,G,]2 | [F,,F,]C,F, [A,C]2 [A,C]F,A,, | %56
 [B,,,B,,]F,A,F,, z [B,,F,A,]2 D,, | [G,,,G,,]D,G,A, B,DG,[D,,D,] | G,,D,G,D, D,,G,,D,G,, | %59
 [A,,G,]2 A,E, A,3 E,, | A,,E, G,2 G,E,A,G,, |"_cresc." [D,,D,]A, D,2 [A,D]2 D,D,,- | %62
 D,,D, [D,A,D]2 D,[F,A,C][G,B,]A, | [D,,D,]3 D, [G,A,D]2 D,,A,,,- | %64
 A,,, [D,,A,,D,]2 [D,F,A,] D,,D,D,,[D,,D,] |"_dim." [D,,D,]4 [D,A,]2 D,A, | %66
 D,2 A,2 [D,A,]A,[D,A,]G, | [E,,B,,E,]4 [E,G,B,]3 [F,A,] | %68
 [E,B,][G,B,] [E,G,B,]2 [E,G,B,][G,B,][F,B,][G,B,] |"_dim." [F,,C,G,]6 F,,[A,C] | %70
 F,,[A,C] [A,C]2 [A,C][A,C]F,,A, |!mf! !arpeggio![G,,D,G,]8 | %72
"_dim." !arpeggio![E,,B,,E,]4 !arpeggio![A,,C,G,]4- | [A,,C,G,]4 D,,A,,D,E, | F, A,3- A,4 | %75
!mf! [D,,D,]8- | [D,,D,]8 |] %77

